**harmony	**harte	**kern	**silbe	**kern	**silbe	**kern	**silbe	**rhyme	**timestamp	**phrase	**leadinstrument
*M4/4	*M4/4	*ICvox	*	*ICvox	*	*ICvox	*	*	*	*	*
*	*	*VRlead	*	*VRharmonize	*	*VRharmonize	*	*	*	*	*
*	*	*Hstimme	*	*Nstimme	*	*Nstimme	*	*	*	*	*
*C:	*C:	*C:	*	*C:	*	*C:	*	*	*	*	*
*	*	*M4/4	*	*M4/4	*	*M4/4	*	*	*	*	*
*	*	*clefF4	*	*clefF4	*	*clefF4	*	*	*	*	*
1r;	1r	r;	.	r;	.	r;	.	.	.	.	r
=1	=1	=1	=1	=1	=1	=1	=1	=1	=1	=1	=1
*>Letter>A	*>Letter>A	*>Letter>A	*>Letter>A	*>Letter>A	*>Letter>A	*>Letter>A	*>Letter>A	*>Letter>A	*>Letter>A	*>Letter>A	*>Letter>A
*>Label>Intro	*>Label>Intro	*>Label>Intro	*>Label>Intro	*>Label>Intro	*>Label>Intro	*>Label>Intro	*>Label>Intro	*>Label>Intro	*>Label>Intro	*>Label>Intro	*>Label>Intro
1CMM	C:maj9	1r	.	1r	.	1r	.	.	1.15	newline	r
=2	=2	=2	=2	=2	=2	=2	=2	=2	=2	=2	=2
1CMM	C:maj9	1r	.	1r	.	1r	.	.	.	.	r
=3	=3	=3	=3	=3	=3	=3	=3	=3	=3	=3	=3
1Dmm	D:min7/b7	1r	.	1r	.	1r	.	.	.	.	r
=4	=4	=4	=4	=4	=4	=4	=4	=4	=4	=4	=4
1Dmm	D:min7/b7	1r	.	1r	.	1r	.	.	.	.	r
=5	=5	=5	=5	=5	=5	=5	=5	=5	=5	=5	=5
1CMM	C:maj9	1r	.	1r	.	1r	.	.	9.765	newline	r
=6	=6	=6	=6	=6	=6	=6	=6	=6	=6	=6	=6
1CMM	C:maj9	1r	.	1r	.	1r	.	.	.	.	r
=7	=7	=7	=7	=7	=7	=7	=7	=7	=7	=7	=7
1Dmm	D:min7/b7	1r	.	1r	.	1r	.	.	.	.	r
=8	=8	=8	=8	=8	=8	=8	=8	=8	=8	=8	=8
1Dmm	D:min7/b7	1r	.	1r	.	1r	.	.	.	.	r
=9	=9	=9	=9	=9	=9	=9	=9	=9	=9	=9	=9
*>Letter>B	*>Letter>B	*>Letter>B	*>Letter>B	*>Letter>B	*>Letter>B	*>Letter>B	*>Letter>B	*>Letter>B	*>Letter>B	*>Letter>B	*>Letter>B
*>Label>Verse	*>Label>Verse	*>Label>Verse	*>Label>Verse	*>Label>Verse	*>Label>Verse	*>Label>Verse	*>Label>Verse	*>Label>Verse	*>Label>Verse	*>Label>Verse	*>Label>Verse
1CM	C:maj	8d	Used	1r	.	1r	.	.	18.37	newline	voice
.	.	8e	to	.	.	.	.	.	.	.	.
.	.	8d	think	.	.	.	.	.	.	.	.
.	.	8c	that	.	.	.	.	.	.	.	.
.	.	4c	life	.	.	.	.	.	.	.	.
.	.	8A	was	.	.	.	.	.	.	.	.
.	.	16.e	sweet	.	.	.	.	A	.	.	.
.	.	32d	_	.	.	.	.	.	.	.	.
=10	=10	=10	=10	=10	=10	=10	=10	=10	=10	=10	=10
1CM	C:maj	8e	_	1r	.	1r	.	.	.	.	voice
.	.	8r	.	.	.	.	.	.	.	.	.
.	.	4r	.	.	.	.	.	.	.	.	.
.	.	2r	.	.	.	.	.	.	.	.	.
=11	=11	=11	=11	=11	=11	=11	=11	=11	=11	=11	=11
1Am	A:min	4r	.	1r	.	1r	.	.	.	.	voice
.	.	8A	Used	.	.	.	.	.	.	.	.
.	.	8c	to	.	.	.	.	.	.	.	.
.	.	8c	think	.	.	.	.	.	.	.	.
.	.	8A	we	.	.	.	.	.	.	.	.
.	.	8c	were	.	.	.	.	.	.	.	.
.	.	[8d	so	.	.	.	.	.	.	.	.
=12	=12	=12	=12	=12	=12	=12	=12	=12	=12	=12	=12
1Em	E:min	8d]	_	1r	.	1r	.	.	.	.	voice
.	.	8d	com-	.	.	.	.	.	.	.	.
.	.	16B	-plete	.	.	.	.	A	.	.	.
.	.	16A	_	.	.	.	.	.	.	.	.
.	.	8G	_	.	.	.	.	.	.	.	.
.	.	2r	.	.	.	.	.	.	.	.	.
=13	=13	=13	=13	=13	=13	=13	=13	=13	=13	=13	=13
1FM	F:maj	8r	.	1r	.	1r	.	.	26.97	newline	voice
.	.	8~F	I	.	.	.	.	.	.	.	.
.	.	8A	can't	.	.	.	.	.	.	.	.
.	.	8c	be-	.	.	.	.	.	.	.	.
.	.	4c	-lieve	.	.	.	.	.	.	.	.
.	.	8Gq	_	.	.	.	.	.	.	.	.
.	.	8A	you'd	.	.	.	.	.	.	.	.
.	.	8G	_	.	.	.	.	.	.	.	.
=14	=14	=14	=14	=14	=14	=14	=14	=14	=14	=14	=14
1Dm	D:min	4r	.	1r	.	1r	.	.	.	.	voice
.	.	8r	.	.	.	.	.	.	.	.	.
.	.	8A	you'd	.	.	.	.	.	.	.	.
.	.	8c	throw	.	.	.	.	.	.	.	.
.	.	8d	it	.	.	.	.	.	.	.	.
.	.	8e	a	.	.	.	.	.	.	.	.
.	.	8eq	_	.	.	.	.	.	.	.	.
.	.	8f	way	.	.	.	.	.	.	.	.
=15	=15	=15	=15	=15	=15	=15	=15	=15	=15	=15	=15
1CM	C:maj	4e	_	1r	.	1r	.	.	.	.	voice
.	.	4r	.	.	.	.	.	.	.	.	.
.	.	2r	.	.	.	.	.	.	.	.	.
=16	=16	=16	=16	=16	=16	=16	=16	=16	=16	=16	=16
4FM	F:maj/5	2r	.	1r	.	1r	.	.	.	.	voice
4CM	C:maj	.	.	.	.	.	.	.	.	.	voice
4FM	F:maj/5	4r	.	.	.	.	.	.	.	.	voice
4CM	C:maj	8r	.	.	.	.	.	.	.	.	voice
.	.	8dq	_	.	.	.	.	.	.	.	.
.	.	[8e	Used	.	.	.	.	.	.	.	.
=17	=17	=17	=17	=17	=17	=17	=17	=17	=17	=17	=17
*>Letter>B	*>Letter>B	*>Letter>B	*>Letter>B	*>Letter>B	*>Letter>B	*>Letter>B	*>Letter>B	*>Letter>B	*>Letter>B	*>Letter>B	*>Letter>B
*>Label>Verse	*>Label>Verse	*>Label>Verse	*>Label>Verse	*>Label>Verse	*>Label>Verse	*>Label>Verse	*>Label>Verse	*>Label>Verse	*>Label>Verse	*>Label>Verse	*>Label>Verse
1CM	C:maj	8e]	_	1r	.	1r	.	.	35.595	newline	voice
.	.	8e	to	.	.	.	.	.	.	.	.
.	.	8d	feel	.	.	.	.	.	.	.	.
.	.	8c	we	.	.	.	.	.	.	.	.
.	.	4c	had	.	.	.	.	.	.	.	.
.	.	8A	it	.	.	.	.	.	.	.	.
.	.	16.e	made	.	.	.	.	B	.	.	.
.	.	32d	_	.	.	.	.	.	.	.	.
=18	=18	=18	=18	=18	=18	=18	=18	=18	=18	=18	=18
1CM	C:maj	8e	_	1r	.	1r	.	.	.	.	voice
.	.	8r	.	.	.	.	.	.	.	.	.
.	.	4r	.	.	.	.	.	.	.	.	.
.	.	2r	.	.	.	.	.	.	.	.	.
=19	=19	=19	=19	=19	=19	=19	=19	=19	=19	=19	=19
1Am	A:min	4r	.	1r	.	1r	.	.	.	.	voice
.	.	8A	Used	.	.	.	.	.	.	.	.
.	.	8c	to	.	.	.	.	.	.	.	.
.	.	8c	feel	.	.	.	.	.	.	.	.
.	.	8c	we	.	.	.	.	.	.	.	.
.	.	8c	could	.	.	.	.	.	.	.	.
.	.	[8d	sail	.	.	.	.	.	.	.	.
=20	=20	=20	=20	=20	=20	=20	=20	=20	=20	=20	=20
1Em	E:min	8d]	_	1r	.	1r	.	.	.	.	voice
.	.	8d	a-	.	.	.	.	.	.	.	.
.	.	16B	-way	.	.	.	.	B	.	.	.
.	.	16A	_	.	.	.	.	.	.	.	.
.	.	8G	_	.	.	.	.	.	.	.	.
.	.	2r	.	.	.	.	.	.	.	.	.
=21	=21	=21	=21	=21	=21	=21	=21	=21	=21	=21	=21
1FM	F:maj	8r	.	1r	.	1r	.	.	44.18	newline	voice
.	.	8A	Can	.	.	.	.	.	.	.	.
.	.	8A	you	.	.	.	.	.	.	.	.
.	.	8c	i-	.	.	.	.	.	.	.	.
.	.	4c	-ma-	.	.	.	.	.	.	.	.
.	.	8Gq	_	.	.	.	.	.	.	.	.
.	.	4A	-gine	.	.	.	.	.	.	.	.
=22	=22	=22	=22	=22	=22	=22	=22	=22	=22	=22	=22
1Dm	D:min	4r	.	1r	.	1r	.	.	.	.	voice
.	.	8r	.	.	.	.	.	.	.	.	.
.	.	8A	how	.	.	.	.	.	.	.	.
.	.	8c	I	.	.	.	.	.	.	.	.
.	.	8d	feel	.	.	.	.	.	.	.	.
.	.	8e	to	.	.	.	.	.	.	.	.
.	.	8eq	_	.	.	.	.	.	.	.	.
.	.	8f	day	.	.	.	.	B	.	.	.
=23	=23	=23	=23	=23	=23	=23	=23	=23	=23	=23	=23
1CM	C:maj	4e	_	1r	.	1r	.	.	.	.	voice
.	.	4r	.	.	.	.	.	.	.	.	.
.	.	2r	.	.	.	.	.	.	.	.	.
=24	=24	=24	=24	=24	=24	=24	=24	=24	=24	=24	=24
4FM	F:maj/5	2r	.	1r	.	1r	.	.	.	.	voice
4CM	C:maj	.	.	.	.	.	.	.	.	.	voice
4FM	F:maj/5	8r	.	.	.	.	.	.	.	.	voice
.	.	8d	Well,	.	.	.	.	.	.	.	.
4CM	C:maj	8e	it	.	.	.	.	.	.	.	voice
.	.	[8f	seems	.	.	.	.	.	.	.	.
=25	=25	=25	=25	=25	=25	=25	=25	=25	=25	=25	=25
*>Letter>C	*>Letter>C	*>Letter>C	*>Letter>C	*>Letter>C	*>Letter>C	*>Letter>C	*>Letter>C	*>Letter>C	*>Letter>C	*>Letter>C	*>Letter>C
*>Label>Prechorus	*>Label>Prechorus	*>Label>Prechorus	*>Label>Prechorus	*>Label>Prechorus	*>Label>Prechorus	*>Label>Prechorus	*>Label>Prechorus	*>Label>Prechorus	*>Label>Prechorus	*>Label>Prechorus	*>Label>Prechorus
1Dm	D:min	8f]	_	1r	.	1r	.	.	52.775	newline	voice
.	.	8f	a	.	.	.	.	.	.	.	.
.	.	8dq	_	.	.	.	.	.	.	.	.
.	.	8e	long	.	.	.	.	.	.	.	.
.	.	8d	_	.	.	.	.	.	.	.	.
.	.	4d	time	.	.	.	.	.	.	.	.
.	.	8c	a-	.	.	.	.	.	.	.	.
.	.	16d	-go	.	.	.	.	C	.	.	.
.	.	16c	_	.	.	.	.	.	.	.	.
=26	=26	=26	=26	=26	=26	=26	=26	=26	=26	=26	=26
2.Am	A:min	8A	_	1r	.	1r	.	.	.	.	voice
.	.	8r	.	.	.	.	.	.	.	.	.
.	.	4r	.	.	.	.	.	.	.	.	.
.	.	8r	.	.	.	.	.	.	.	.	.
.	.	8B	You	.	.	.	.	.	.	.	.
4Em	E:min/b3	8B	were	.	.	.	.	.	.	.	voice
.	.	8A	the	.	.	.	.	.	.	.	.
=27	=27	=27	=27	=27	=27	=27	=27	=27	=27	=27	=27
2FM	F:maj6	4.A	lone-	1r	.	1r	.	.	.	.	voice
.	.	8e	-ly	.	.	.	.	.	.	.	.
2FM	F:maj	2e	one	.	.	.	.	D	.	.	voice
=28	=28	=28	=28	=28	=28	=28	=28	=28	=28	=28	=28
2FM	F:maj6	2r	.	1r	.	1r	.	.	.	.	voice
2FM	F:maj	4r	.	.	.	.	.	.	.	.	voice
.	.	8r	.	.	.	.	.	.	.	.	.
.	.	8e	Now	.	.	.	.	.	.	.	.
=29	=29	=29	=29	=29	=29	=29	=29	=29	=29	=29	=29
1Dm	D:min	8f	_	1r	.	1r	.	.	61.365	newline	voice
.	.	8f	it	.	.	.	.	.	.	.	.
.	.	8e	comes	.	.	.	.	.	.	.	.
.	.	8d	to	.	.	.	.	.	.	.	.
.	.	8d	let-	.	.	.	.	.	.	.	.
.	.	[8c	-ting	.	.	.	.	.	.	.	.
.	.	8c]	_	.	.	.	.	.	.	.	.
.	.	8d	go	.	.	.	.	C	.	.	.
=30	=30	=30	=30	=30	=30	=30	=30	=30	=30	=30	=30
2.Am	A:min	16c	_	1r	.	1r	.	.	.	.	voice
.	.	8A	_	.	.	.	.	.	.	.	.
.	.	16r	.	.	.	.	.	.	.	.	.
.	.	4r	.	.	.	.	.	.	.	.	.
.	.	8r	.	.	.	.	.	.	.	.	.
.	.	8B	You	.	.	.	.	.	.	.	.
4Em	E:min/b3	8B	are	.	.	.	.	.	.	.	voice
.	.	8A	the	.	.	.	.	.	.	.	.
=31	=31	=31	=31	=31	=31	=31	=31	=31	=31	=31	=31
2FM	F:maj6	4.A	on-	1r	.	1r	.	.	.	.	voice
.	.	8e	-ly	.	.	.	.	.	.	.	.
2FM	F:maj	2e	one	.	.	.	.	D	.	.	voice
=32	=32	=32	=32	=32	=32	=32	=32	=32	=32	=32	=32
2FM	F:maj6	2r	.	1r	.	1r	.	.	.	.	voice
2FM	F:maj	8r	.	.	.	.	.	.	.	.	voice
.	.	8c	Do	.	.	.	.	.	.	.	.
.	.	8c	you	.	.	.	.	.	.	.	.
.	.	8A	know	.	.	.	.	.	.	.	.
=33	=33	=33	=33	=33	=33	=33	=33	=33	=33	=33	=33
2GM	G:maj6	4.A	what	1r	.	1r	.	.	69.965	newline	voice
.	.	8e	you've	.	.	.	.	.	.	.	.
2GM	G:maj	4.e	done	.	.	.	.	D	.	.	voice
.	.	16f	_	.	.	.	.	.	.	.	.
.	.	16e	_	.	.	.	.	.	.	.	.
=34	=34	=34	=34	=34	=34	=34	=34	=34	=34	=34	=34
2GM	G:maj6	4.d	_	1r	.	1r	.	.	.	.	voice
.	.	16e	_	.	.	.	.	.	.	.	.
.	.	16r	.	.	.	.	.	.	.	.	.
2GM	G:maj	2r	.	.	.	.	.	.	.	.	voice
=35	=35	=35	=35	=35	=35	=35	=35	=35	=35	=35	=35
*>Letter>A	*>Letter>A	*>Letter>A	*>Letter>A	*>Letter>A	*>Letter>A	*>Letter>A	*>Letter>A	*>Letter>A	*>Letter>A	*>Letter>A	*>Letter>A
*>Label>Chorus	*>Label>Chorus	*>Label>Chorus	*>Label>Chorus	*>Label>Chorus	*>Label>Chorus	*>Label>Chorus	*>Label>Chorus	*>Label>Chorus	*>Label>Chorus	*>Label>Chorus	*>Label>Chorus
1CMM	C:maj9	8e	It's	8G 8c	It's	1r	.	.	74.265	newline	voice
.	.	4d	so	4G 4B	so	.	.	.	.	.	.
.	.	[8d	fun	[8G [8B	fun	.	.	.	.	.	.
.	.	8d]	_	8G] 8B]	_	.	.	.	.	.	.
.	.	4e	ny	4G 4c	ny	.	.	.	.	.	.
.	.	8r	.	8r	.	.	.	.	.	.	.
=36	=36	=36	=36	=36	=36	=36	=36	=36	=36	=36	=36
1CMM	C:maj9	4r	.	4r	.	1r	.	.	.	.	voice
.	.	8d	how	8G 8B	how	.	.	.	.	.	.
.	.	[8e	we	[8G [8c	we	.	.	.	.	.	.
.	.	8e]	_	8G] 8c]	_	.	.	.	.	.	.
.	.	4d	don't	4G 4B	don't	.	.	.	.	.	.
.	.	[8f	talk	[8A [8d	talk	.	.	.	.	.	.
=37	=37	=37	=37	=37	=37	=37	=37	=37	=37	=37	=37
1Dmm	D:min7/b7	4.f]	_	4.A] 4.d]	_	1r	.	.	.	.	voice
.	.	16e	a-	16A 16c	a-	.	.	.	.	.	.
.	.	16d	-ny-	16G 16B	-ny-	.	.	.	.	.	.
.	.	4.c	-more	4.F 4.A	-more	.	.	.	.	.	.
.	.	8r	.	8r	.	.	.	.	.	.	.
=38	=38	=38	=38	=38	=38	=38	=38	=38	=38	=38	=38
1Dmm	D:min7/b7	1r	.	1r	.	1r	.	.	.	.	voice
=39	=39	=39	=39	=39	=39	=39	=39	=39	=39	=39	=39
1CMM	C:maj9	8e	It's	8G 8c	It's	1r	.	.	82.84	newline	voice
.	.	4d	so	4G 4B	so	.	.	.	.	.	.
.	.	[8d	fun	[8G [8B	fun	.	.	.	.	.	.
.	.	8d]	_	8G] 8B]	_	.	.	.	.	.	.
.	.	4e	ny	4G 4c	ny	.	.	.	.	.	.
.	.	8r	.	8r	.	.	.	.	.	.	.
=40	=40	=40	=40	=40	=40	=40	=40	=40	=40	=40	=40
1CMM	C:maj9	4r	.	4r	.	1r	.	.	.	.	voice
.	.	8d	why	8G 8B	why	.	.	.	.	.	.
.	.	[8e	we	[8G [8c	we	.	.	.	.	.	.
.	.	8e]	_	8G] 8c]	_	.	.	.	.	.	.
.	.	4d	don't	4G 4B	don't	.	.	.	.	.	.
.	.	[8f	talk	8A [8d	talk	.	.	.	.	.	.
=41	=41	=41	=41	=41	=41	=41	=41	=41	=41	=41	=41
1Dmm	D:min7/b7	4.f]	_	4.A 4.d]	_	1r	.	.	.	.	voice
.	.	16f	a-	16A 16d	a-	.	.	.	.	.	.
.	.	16g	-ny-	16c 16e	-ny-	.	.	.	.	.	.
.	.	4.f	-more	4.A 4.c	-more	.	.	.	.	.	.
.	.	8r	.	8r	.	.	.	.	.	.	.
=42	=42	=42	=42	=42	=42	=42	=42	=42	=42	=42	=42
1Dmm	D:min7/b7	4r	.	1r	.	1r	.	.	.	.	voice
.	.	8r	.	.	.	.	.	.	.	.	.
.	.	16c	But	.	.	.	.	.	.	.	.
.	.	16c	I	.	.	.	.	.	.	.	.
.	.	8a	ain't	.	.	.	.	.	.	.	.
.	.	8g	lo-	.	.	.	.	.	.	.	.
.	.	8g	-sin'	.	.	.	.	.	.	.	.
.	.	8g	sleep	.	.	.	.	E	.	.	.
=43	=43	=43	=43	=43	=43	=43	=43	=43	=43	=43	=43
*>Letter>A2	*>Letter>A2	*>Letter>A2	*>Letter>A2	*>Letter>A2	*>Letter>A2	*>Letter>A2	*>Letter>A2	*>Letter>A2	*>Letter>A2	*>Letter>A2	*>Letter>A2
*>Label>Bridge	*>Label>Bridge	*>Label>Bridge	*>Label>Bridge	*>Label>Bridge	*>Label>Bridge	*>Label>Bridge	*>Label>Bridge	*>Label>Bridge	*>Label>Bridge	*>Label>Bridge	*>Label>Bridge
.	.	8dq	_	.	.	.	.	.	.	.	.
2CM	C:maj	4.e	_	1r	.	1r	.	.	91.47	newline	voice
.	.	8r	.	.	.	.	.	.	.	.	.
2CMm	C:11	2r	.	.	.	.	.	.	.	.	voice
=44	=44	=44	=44	=44	=44	=44	=44	=44	=44	=44	=44
4FMm	F:11	4r	.	1r	.	1r	.	.	.	.	voice
2.FM	F:maj	8r	.	.	.	.	.	.	.	.	voice
.	.	16e	And	.	.	.	.	.	.	.	.
.	.	16e	I	.	.	.	.	.	.	.	.
.	.	8f	ain't	.	.	.	.	.	.	.	.
.	.	8f	coun-	.	.	.	.	.	.	.	.
.	.	8f	-tin'	.	.	.	.	.	.	.	.
.	.	8g	sheep	.	.	.	.	E	.	.	.
=45	=45	=45	=45	=45	=45	=45	=45	=45	=45	=45	=45
.	.	8d#q	_	.	.	.	.	.	.	.	.
2.GMm	G:11	8e	_	1r	.	1r	.	.	.	.	voice
.	.	8d#q	_	.	.	.	.	.	.	.	.
.	.	8e	_	.	.	.	.	.	.	.	.
.	.	4r	.	.	.	.	.	.	.	.	.
.	.	2r	.	.	.	.	.	.	.	.	.
4GM	G:maj	.	.	.	.	.	.	.	.	.	voice
=46	=46	=46	=46	=46	=46	=46	=46	=46	=46	=46	=46
1AMm	A:11	1r	.	1r	.	1r	.	.	.	.	voice
=47	=47	=47	=47	=47	=47	=47	=47	=47	=47	=47	=47
*A:	*A:	*A:	*	*A:	*	*A:	*	*	*	*	*
1AMM	A:maj9	1r	.	8e 8a 8cc#	It's	1r	.	.	100.02	newline	voice
.	.	.	.	4e 4g# 4b	so	.	.	.	.	.	.
.	.	.	.	[8e [8g# [8b	fun	.	.	.	.	.	.
.	.	.	.	8e] 8g#] 8b]	_	.	.	.	.	.	.
.	.	.	.	4e 4a 4cc#	ny	.	.	.	.	.	.
.	.	.	.	8r	.	.	.	.	.	.	.
=48	=48	=48	=48	=48	=48	=48	=48	=48	=48	=48	=48
1AMM	A:maj9	1r	.	4r	.	1r	.	.	.	.	voice
.	.	.	.	8e 8g# 8b	how	.	.	.	.	.	.
.	.	.	.	[8e [8a [8cc#	we	.	.	.	.	.	.
.	.	.	.	8e] 8a] 8cc#]	_	.	.	.	.	.	.
.	.	.	.	4e 4g# 4b	don't	.	.	.	.	.	.
.	.	.	.	[8f# [8b [8dd	talk	.	.	.	.	.	.
=49	=49	=49	=49	=49	=49	=49	=49	=49	=49	=49	=49
1Bm	B:min/b7	2r	.	1f#_ 1b_ 1dd_	_	1r	.	.	.	.	voice
.	.	8r	.	.	.	.	.	.	.	.	.
.	.	16a	A-	.	.	.	.	.	.	.	.
.	.	16a	-ny-	.	.	.	.	.	.	.	.
.	.	8g#	-more	.	.	.	.	.	.	.	.
.	.	[8f#	_	.	.	.	.	.	.	.	.
=50	=50	=50	=50	=50	=50	=50	=50	=50	=50	=50	=50
1Bm	B:min/b7	4.f#]	_	2f#] 2b] 2dd]	_	1r	.	.	.	.	voice
.	.	8r	.	.	.	.	.	.	.	.	.
.	.	2r	.	2r	.	.	.	.	.	.	.
=51	=51	=51	=51	=51	=51	=51	=51	=51	=51	=51	=51
*>Letter>A	*>Letter>A	*>Letter>A	*>Letter>A	*>Letter>A	*>Letter>A	*>Letter>A	*>Letter>A	*>Letter>A	*>Letter>A	*>Letter>A	*>Letter>A
*>Label>Interlude	*>Label>Interlude	*>Label>Interlude	*>Label>Interlude	*>Label>Interlude	*>Label>Interlude	*>Label>Interlude	*>Label>Interlude	*>Label>Interlude	*>Label>Interlude	*>Label>Interlude	*>Label>Interlude
*C:	*C:	*clefG2	*	*	*	*	*	*	*	*	*
1CMM	C:maj9	4r	.	1r	.	1r	.	.	108.635	newline	voice
.	.	8r	.	.	.	.	.	.	.	.	.
.	.	16dd	Ah,	.	.	.	.	.	.	.	.
.	.	[16ee	_	.	.	.	.	.	.	.	.
.	.	4.ee]	_	.	.	.	.	.	.	.	.
.	.	[8dd	_	.	.	.	.	.	.	.	.
=52	=52	=52	=52	=52	=52	=52	=52	=52	=52	=52	=52
1CMM	C:maj9	4.dd]	_	1r	.	1r	.	.	.	.	voice
.	.	[8cc	_	.	.	.	.	.	.	.	.
.	.	8cc]	_	.	.	.	.	.	.	.	.
.	.	8cc	we	.	.	.	.	.	.	.	.
.	.	8ccq	_	.	.	.	.	.	.	.	.
.	.	[4dd	don't	.	.	.	.	.	.	.	.
=53	=53	=53	=53	=53	=53	=53	=53	=53	=53	=53	=53
1Dmm	D:min7/b7	8dd]	_	1r	.	1r	.	.	.	.	voice
.	.	8gq	_	.	.	.	.	.	.	.	.
.	.	8a	talk	.	.	.	.	.	.	.	.
.	.	8gq	_	.	.	.	.	.	.	.	.
.	.	8a	_	.	.	.	.	.	.	.	.
.	.	8r	.	.	.	.	.	.	.	.	.
.	.	2r	.	.	.	.	.	.	.	.	.
=54	=54	=54	=54	=54	=54	=54	=54	=54	=54	=54	=54
1Dmm	D:min7/b7	1r	.	1r	.	1r	.	.	.	.	voice
=55	=55	=55	=55	=55	=55	=55	=55	=55	=55	=55	=55
1CMM	C:maj9	2r	.	1r	.	1r	.	.	117.215	newline	voice
.	.	8r	.	.	.	.	.	.	.	.	.
.	.	8gq	_	.	.	.	.	.	.	.	.
.	.	4a	Ooh	.	.	.	.	.	.	.	.
.	.	[8g	_	.	.	.	.	.	.	.	.
=56	=56	=56	=56	=56	=56	=56	=56	=56	=56	=56	=56
1CMM	C:maj9	4.g]	_	1r	.	1r	.	.	.	.	voice
.	.	16e	_	.	.	.	.	.	.	.	.
.	.	16d	_	.	.	.	.	.	.	.	.
.	.	2r	.	.	.	.	.	.	.	.	.
=57	=57	=57	=57	=57	=57	=57	=57	=57	=57	=57	=57
1Dmm	D:min7/b7	1r	.	1r	.	1r	.	.	.	.	voice
=58	=58	=58	=58	=58	=58	=58	=58	=58	=58	=58	=58
*	*	*clefF4	*	*clefG2	*	*	*	*	*	*	*
1Dmm	D:min7/b7	2r	.	1r	.	1r	.	.	.	.	voice
.	.	4r	.	.	.	.	.	.	.	.	.
.	.	8r	.	.	.	.	.	.	.	.	.
.	.	16G	Well,	.	.	.	.	.	.	.	.
.	.	16G	it	.	.	.	.	.	.	.	.
=59	=59	=59	=59	=59	=59	=59	=59	=59	=59	=59	=59
*>Letter>B	*>Letter>B	*>Letter>B	*>Letter>B	*>Letter>B	*>Letter>B	*>Letter>B	*>Letter>B	*>Letter>B	*>Letter>B	*>Letter>B	*>Letter>B
*>Label>Verse	*>Label>Verse	*>Label>Verse	*>Label>Verse	*>Label>Verse	*>Label>Verse	*>Label>Verse	*>Label>Verse	*>Label>Verse	*>Label>Verse	*>Label>Verse	*>Label>Verse
1CM	C:maj	8e	real-	8g	real-	1r	.	.	125.785	newline	voice
.	.	8e	-ly	8g	-ly	.	.	.	.	.	.
.	.	8d	does-	8f	does-	.	.	.	.	.	.
.	.	8c	-n't	8e	-n't	.	.	.	.	.	.
.	.	8c	mat-	8e	mat-	.	.	.	.	.	.
.	.	8c	-ter	8e	-ter	.	.	.	.	.	.
.	.	8A	to	8~c	to	.	.	.	.	.	.
.	.	16.e	me	16.g	me	.	.	E	.	.	.
.	.	32d	_	32f	_	.	.	.	.	.	.
=60	=60	=60	=60	=60	=60	=60	=60	=60	=60	=60	=60
1CM	C:maj	8e	_	8g	_	1r	.	.	.	.	voice
.	.	8r	.	8r	.	.	.	.	.	.	.
.	.	4r	.	4r	.	.	.	.	.	.	.
.	.	2r	.	2r	.	.	.	.	.	.	.
=61	=61	=61	=61	=61	=61	=61	=61	=61	=61	=61	=61
1Am	A:min	8r	.	1r	.	1r	.	.	.	.	voice
.	.	8~A	I	.	.	.	.	.	.	.	.
.	.	8c	guess	.	.	.	.	.	.	.	.
.	.	8c	your	.	.	.	.	.	.	.	.
.	.	8c	lea-	.	.	.	.	.	.	.	.
.	.	8A	-vin'	.	.	.	.	.	.	.	.
.	.	8r	.	.	.	.	.	.	.	.	.
.	.	8c	was	.	.	.	.	.	.	.	.
=62	=62	=62	=62	=62	=62	=62	=62	=62	=62	=62	=62
1Em	E:min	8d	meant	1r	.	1r	.	.	.	.	voice
.	.	8d	to	.	.	.	.	.	.	.	.
.	.	16B	be	.	.	.	.	E	.	.	.
.	.	16A	_	.	.	.	.	.	.	.	.
.	.	8G	_	.	.	.	.	.	.	.	.
.	.	2r	.	.	.	.	.	.	.	.	.
=63	=63	=63	=63	=63	=63	=63	=63	=63	=63	=63	=63
1FM	F:maj	8r	.	1r	.	1r	.	.	134.425	newline	voice
.	.	8~F	It's	.	.	.	.	.	.	.	.
.	.	8A	down	.	.	.	.	.	.	.	.
.	.	8c	to	.	.	.	.	.	.	.	.
.	.	4c	you,	.	.	.	.	.	.	.	.
.	.	8Gq	_	.	.	.	.	.	.	.	.
.	.	8A	now	.	.	.	.	.	.	.	.
.	.	8r	.	.	.	.	.	.	.	.	.
=64	=64	=64	=64	=64	=64	=64	=64	=64	=64	=64	=64
1Dm	D:min	4r	.	2r	.	1r	.	.	.	.	voice
.	.	8r	.	.	.	.	.	.	.	.	.
.	.	8A	you	.	.	.	.	.	.	.	.
.	.	8c	wan-	8e	wan-	.	.	.	.	.	.
.	.	8d	-na	8f	-na	.	.	.	.	.	.
.	.	8e	be	8g	be	.	.	.	.	.	.
.	.	16f	free	16a	free	.	.	E	.	.	.
.	.	[16e	_	[16g	_	.	.	.	.	.	.
=65	=65	=65	=65	=65	=65	=65	=65	=65	=65	=65	=65
1CM	C:maj	16e]	_	16g]	_	1r	.	.	.	.	voice
.	.	16d	_	16f	_	.	.	.	.	.	.
.	.	8c	_	8e	_	.	.	.	.	.	.
.	.	4r	.	4r	.	.	.	.	.	.	.
.	.	2r	.	2r	.	.	.	.	.	.	.
=66	=66	=66	=66	=66	=66	=66	=66	=66	=66	=66	=66
4FM	F:maj/5	2r	.	1r	.	1r	.	.	.	.	voice
4CM	C:maj	.	.	.	.	.	.	.	.	.	voice
4FM	F:maj/5	8r	.	.	.	.	.	.	.	.	voice
.	.	8d	Well,	.	.	.	.	.	.	.	.
4CM	C:maj	8e	I	.	.	.	.	.	.	.	voice
.	.	[8f	hope	.	.	.	.	.	.	.	.
=67	=67	=67	=67	=67	=67	=67	=67	=67	=67	=67	=67
*>Letter>C	*>Letter>C	*>Letter>C	*>Letter>C	*>Letter>C	*>Letter>C	*>Letter>C	*>Letter>C	*>Letter>C	*>Letter>C	*>Letter>C	*>Letter>C
*>Label>Prechorus	*>Label>Prechorus	*>Label>Prechorus	*>Label>Prechorus	*>Label>Prechorus	*>Label>Prechorus	*>Label>Prechorus	*>Label>Prechorus	*>Label>Prechorus	*>Label>Prechorus	*>Label>Prechorus	*>Label>Prechorus
1Dm	D:min	8f]	_	1r	.	1r	.	.	142.99	newline	voice
.	.	8c	you	.	.	.	.	.	.	.	.
.	.	8e	know	.	.	.	.	C	.	.	.
.	.	8d	which	.	.	.	.	.	.	.	.
.	.	8d	way	.	.	.	.	.	.	.	.
.	.	8c	_	.	.	.	.	.	.	.	.
.	.	8c	to	.	.	.	.	.	.	.	.
.	.	8d	go	.	.	.	.	C	.	.	.
=68	=68	=68	=68	=68	=68	=68	=68	=68	=68	=68	=68
2.Am	A:min	16c	_	1r	.	1r	.	.	.	.	voice
.	.	8A	_	.	.	.	.	.	.	.	.
.	.	16r	.	.	.	.	.	.	.	.	.
.	.	4r	.	.	.	.	.	.	.	.	.
.	.	8r	.	.	.	.	.	.	.	.	.
.	.	8B	You're	.	.	.	.	.	.	.	.
4Em	E:min/b3	8B	on	.	.	.	.	.	.	.	voice
.	.	8A	your	.	.	.	.	.	.	.	.
=69	=69	=69	=69	=69	=69	=69	=69	=69	=69	=69	=69
2FM	F:maj6	4.A	own	1r	.	1r	.	C	.	.	voice
.	.	8e	a-	.	.	.	.	.	.	.	.
2FM	F:maj	[4e	-gain	.	.	.	.	.	.	.	voice
.	.	16e]	_	.	.	.	.	.	.	.	.
.	.	16~f	_	.	.	.	.	.	.	.	.
.	.	8r	.	.	.	.	.	.	.	.	.
=70	=70	=70	=70	=70	=70	=70	=70	=70	=70	=70	=70
2FM	F:maj6	2r	.	1r	.	1r	.	.	.	.	voice
2FM	F:maj	4r	.	.	.	.	.	.	.	.	voice
.	.	8r	.	.	.	.	.	.	.	.	.
.	.	8eq	_	.	.	.	.	.	.	.	.
.	.	[8f	Don't	.	.	.	.	.	.	.	.
=71	=71	=71	=71	=71	=71	=71	=71	=71	=71	=71	=71
1Dm	D:min	4f]	_	1r	.	1r	.	.	151.58	newline	voice
.	.	8e	come	.	.	.	.	.	.	.	.
.	.	8d	n'-	.	.	.	.	.	.	.	.
.	.	8e	-cry-	.	.	.	.	.	.	.	.
.	.	8d	-in'	.	.	.	.	.	.	.	.
.	.	[8c	to	.	.	.	.	.	.	.	.
.	.	16d	me	.	.	.	.	.	.	.	.
.	.	16e	_	.	.	.	.	.	.	.	.
=72	=72	=72	=72	=72	=72	=72	=72	=72	=72	=72	=72
2.Am	A:min	2r	.	1r	.	1r	.	.	.	.	voice
.	.	8r	.	.	.	.	.	.	.	.	.
.	.	8B	when	.	.	.	.	.	.	.	.
4Em	E:min/b3	8B	you're	.	.	.	.	.	.	.	voice
.	.	8A	the	.	.	.	.	.	.	.	.
=73	=73	=73	=73	=73	=73	=73	=73	=73	=73	=73	=73
2FM	F:maj6	4.A	lone-	1r	.	1r	.	.	.	.	voice
.	.	8e	-ly	.	.	.	.	.	.	.	.
2FM	F:maj	2e	one	.	.	.	.	D	.	.	voice
=74	=74	=74	=74	=74	=74	=74	=74	=74	=74	=74	=74
2FM	F:maj6	2r	.	1r	.	1r	.	.	.	.	voice
2FM	F:maj	8r	.	.	.	.	.	.	.	.	voice
.	.	8c]	Re-	.	.	.	.	.	.	.	.
.	.	8c	-mem-	.	.	.	.	.	.	.	.
.	.	8A	-ber	.	.	.	.	.	.	.	.
=75	=75	=75	=75	=75	=75	=75	=75	=75	=75	=75	=75
2GM	G:maj6	4.A	what	1r	.	1r	.	.	160.145	newline	voice
.	.	8e	you've	.	.	.	.	.	.	.	.
2GM	G:maj	4.e	done	.	.	.	.	D	.	.	voice
.	.	16f	_	.	.	.	.	.	.	.	.
.	.	16e	_	.	.	.	.	.	.	.	.
=76	=76	=76	=76	=76	=76	=76	=76	=76	=76	=76	=76
2GM	G:maj6	4.d	_	1r	.	1r	.	.	.	.	voice
.	.	16~e	_	.	.	.	.	.	.	.	.
.	.	16r	.	.	.	.	.	.	.	.	.
2GM	G:maj	8r	.	.	.	.	.	.	.	.	voice
.	.	8dq	_	.	.	.	.	.	.	.	.
.	.	4e	Oh	.	.	.	.	.	.	.	.
.	.	8r	.	.	.	.	.	.	.	.	.
=77	=77	=77	=77	=77	=77	=77	=77	=77	=77	=77	=77
*>Letter>A	*>Letter>A	*>Letter>A	*>Letter>A	*>Letter>A	*>Letter>A	*>Letter>A	*>Letter>A	*>Letter>A	*>Letter>A	*>Letter>A	*>Letter>A
*>Label>Chorus	*>Label>Chorus	*>Label>Chorus	*>Label>Chorus	*>Label>Chorus	*>Label>Chorus	*>Label>Chorus	*>Label>Chorus	*>Label>Chorus	*>Label>Chorus	*>Label>Chorus	*>Label>Chorus
1CMM	C:maj9	8e	It's	8G 8c	It's	1r	.	.	164.475	newline	voice
.	.	4d	so	4G 4B	so	.	.	.	.	.	.
.	.	[8d	fun	[8G [8B	fun	.	.	.	.	.	.
.	.	8d]	_	8G] 8B]	_	.	.	.	.	.	.
.	.	4e	ny	4G 4c	ny	.	.	.	.	.	.
.	.	8r	.	8r	.	.	.	.	.	.	.
=78	=78	=78	=78	=78	=78	=78	=78	=78	=78	=78	=78
1CMM	C:maj9	4r	.	4r	.	1r	.	.	.	.	voice
.	.	8d	how	8G 8B	how	.	.	.	.	.	.
.	.	[8e	we	[8G [8c	we	.	.	.	.	.	.
.	.	8e]	_	8G] 8c]	_	.	.	.	.	.	.
.	.	4d	don't	4G 4B	don't	.	.	.	.	.	.
.	.	[8f	talk	[8A [8d	talk	.	.	.	.	.	.
=79	=79	=79	=79	=79	=79	=79	=79	=79	=79	=79	=79
1Dmm	D:min7/b7	4.f]	_	4.A] 4.d]	_	1r	.	.	.	.	voice
.	.	16e	a-	16A 16c	a-	.	.	.	.	.	.
.	.	16d	-ny-	16G 16B	-ny-	.	.	.	.	.	.
.	.	4.c	-more	4.F 4.A	-more	.	.	.	.	.	.
.	.	8r	.	8r	.	.	.	.	.	.	.
=80	=80	=80	=80	=80	=80	=80	=80	=80	=80	=80	=80
1Dmm	D:min7/b7	1r	.	1r	.	1r	.	.	.	.	voice
=81	=81	=81	=81	=81	=81	=81	=81	=81	=81	=81	=81
1CMM	C:maj9	8e	It's	8G 8c	It's	1r	.	.	173.1	newline	voice
.	.	4d	so	4G 4B	so	.	.	.	.	.	.
.	.	[8d	fun	[8G [8B	fun	.	.	.	.	.	.
.	.	8d]	_	8G] 8B]	_	.	.	.	.	.	.
.	.	4e	ny	4G 4c	ny	.	.	.	.	.	.
.	.	8r	.	8r	.	.	.	.	.	.	.
=82	=82	=82	=82	=82	=82	=82	=82	=82	=82	=82	=82
1CMM	C:maj9	4r	.	4r	.	1r	.	.	.	.	voice
.	.	8d	why	8G 8B	why	.	.	.	.	.	.
.	.	[8e	we	[8G [8c	we	.	.	.	.	.	.
.	.	8e]	_	8G] 8c]	_	.	.	.	.	.	.
.	.	4d	don't	4G 4B	don't	.	.	.	.	.	.
.	.	[8f	talk	8A [8d	talk	.	.	.	.	.	.
=83	=83	=83	=83	=83	=83	=83	=83	=83	=83	=83	=83
1Dmm	D:min7/b7	4.f]	_	4.A 4.d]	_	1r	.	.	.	.	voice
.	.	16f	a-	16A 16d	a-	.	.	.	.	.	.
.	.	16g	-ny-	16c 16e	-ny-	.	.	.	.	.	.
.	.	4.f	-more	4.A 4.c	-more	.	.	.	.	.	.
.	.	8r	.	8r	.	.	.	.	.	.	.
=84	=84	=84	=84	=84	=84	=84	=84	=84	=84	=84	=84
1Dmm	D:min7/b7	4r	.	1r	.	1r	.	.	.	.	voice
.	.	8r	.	.	.	.	.	.	.	.	.
.	.	16c	But	.	.	.	.	.	.	.	.
.	.	16c	I	.	.	.	.	.	.	.	.
.	.	8a	ain't	.	.	.	.	.	.	.	.
.	.	8g	lo-	.	.	.	.	.	.	.	.
.	.	8g	-sin'	.	.	.	.	.	.	.	.
.	.	8a	sleep	.	.	.	.	E	.	.	.
=85	=85	=85	=85	=85	=85	=85	=85	=85	=85	=85	=85
*>Letter>A3	*>Letter>A3	*>Letter>A3	*>Letter>A3	*>Letter>A3	*>Letter>A3	*>Letter>A3	*>Letter>A3	*>Letter>A3	*>Letter>A3	*>Letter>A3	*>Letter>A3
*>Label>Bridge	*>Label>Bridge	*>Label>Bridge	*>Label>Bridge	*>Label>Bridge	*>Label>Bridge	*>Label>Bridge	*>Label>Bridge	*>Label>Bridge	*>Label>Bridge	*>Label>Bridge	*>Label>Bridge
.	.	8fq	_	.	.	.	.	.	.	.	.
2CM	C:maj	8g	_	1r	.	1r	.	.	181.71	newline	voice
.	.	8r	.	.	.	.	.	.	.	.	.
.	.	4r	.	.	.	.	.	.	.	.	.
2CMm	C:11	2r	.	.	.	.	.	.	.	.	voice
=86	=86	=86	=86	=86	=86	=86	=86	=86	=86	=86	=86
4FMm	F:11	4r	.	1r	.	1r	.	.	.	.	voice
2.FM	F:maj	8r	.	.	.	.	.	.	.	.	voice
.	.	16e	And	.	.	.	.	.	.	.	.
.	.	16e	I	.	.	.	.	.	.	.	.
.	.	8f	ain't	.	.	.	.	.	.	.	.
.	.	8f	coun-	.	.	.	.	.	.	.	.
.	.	8f	-tin'	.	.	.	.	.	.	.	.
.	.	8g	sheep	.	.	.	.	E	.	.	.
=87	=87	=87	=87	=87	=87	=87	=87	=87	=87	=87	=87
.	.	8d#q	_	.	.	.	.	.	.	.	.
2.GMm	G:11	8e	_	4r	.	1r	.	.	.	.	voice
.	.	8d#q	_	.	.	.	.	.	.	.	.
.	.	8e	_	.	.	.	.	.	.	.	.
.	.	8d#q	_	.	.	.	.	.	.	.	.
.	.	8e	_	8r	.	.	.	.	.	.	.
.	.	8r	.	8c 8e	Sheep!	.	.	E	.	.	.
.	.	.	.	8Bq 8dq	_	.	.	.	.	.	.
.	.	2r	.	8c 8e	_	.	.	.	.	.	.
.	.	.	.	8Bq 8dq	_	.	.	.	.	.	.
.	.	.	.	8c 8e	_	.	.	.	.	.	.
.	.	.	.	8Bq 8dq	_	.	.	.	.	.	.
4GM	G:maj	.	.	8c 8e	_	.	.	.	.	.	voice
.	.	.	.	8B 8d	_	.	.	.	.	.	.
=88	=88	=88	=88	=88	=88	=88	=88	=88	=88	=88	=88
1AMm	A:11	8r	.	1r	.	1r	.	.	.	.	voice
.	.	8d	No,	.	.	.	.	.	.	.	.
.	.	8d	no,	.	.	.	.	.	.	.	.
.	.	8e	no	.	.	.	.	.	.	.	.
.	.	16d	_	.	.	.	.	.	.	.	.
.	.	16B	_	.	.	.	.	.	.	.	.
.	.	8A	_	.	.	.	.	.	.	.	.
.	.	4r	.	.	.	.	.	.	.	.	.
=89	=89	=89	=89	=89	=89	=89	=89	=89	=89	=89	=89
*A:	*A:	*A:	*	*A:	*	*A:	*	*	*	*	*
*	*	*	*	*clefG2	*	*	*	*	*	*	*
1AMM	A:maj9	1r	.	8e 8a 8cc#	It's	1r	.	.	190.27	newline	voice
.	.	.	.	4e 4g# 4b	so	.	.	.	.	.	.
.	.	.	.	[8e [8g# [8b	fun	.	.	.	.	.	.
.	.	.	.	8e] 8g#] 8b]	_	.	.	.	.	.	.
.	.	.	.	4e 4a 4cc#	ny	.	.	.	.	.	.
.	.	.	.	8r	.	.	.	.	.	.	.
=90	=90	=90	=90	=90	=90	=90	=90	=90	=90	=90	=90
1AMM	A:maj9	1r	.	4r	.	1r	.	.	.	.	voice
.	.	.	.	8e 8g# 8b	how	.	.	.	.	.	.
.	.	.	.	[8e [8a [8cc#	we	.	.	.	.	.	.
.	.	.	.	8e] 8a] 8cc#]	_	.	.	.	.	.	.
.	.	.	.	4e 4g# 4b	don't	.	.	.	.	.	.
.	.	.	.	[8f# [8b [8dd	talk!	.	.	.	.	.	.
=91	=91	=91	=91	=91	=91	=91	=91	=91	=91	=91	=91
*	*	*clefG2	*	*	*	*clefG2	*	*	*	*	*
1Bm	B:min/b7	2r	.	1f#_ 1b_ 1dd_	_	4.r	.	.	.	.	voice
.	.	.	.	.	.	16cc#	A-	.	.	.	.
.	.	.	.	.	.	16cc#	-ny-	.	.	.	.
.	.	8r	.	.	.	8b	-more!	.	.	.	.
.	.	16a	A-	.	.	8a	_	.	.	.	.
.	.	[16a	-ny	.	.	.	.	.	.	.	.
.	.	16a]	_	.	.	8g#	_	.	.	.	.
.	.	8g#	more	.	.	.	.	.	.	.	.
.	.	.	.	.	.	8f#	_	.	.	.	.
.	.	[16f#	_	.	.	.	.	.	.	.	.
=92	=92	=92	=92	=92	=92	=92	=92	=92	=92	=92	=92
1Bm	B:min/b7	4.f#]	_	2f#] 2b] 2dd]	_	1r	.	.	.	.	voice
.	.	16e	_	.	.	.	.	.	.	.	.
.	.	16d	_	.	.	.	.	.	.	.	.
.	.	2r	.	2r	.	.	.	.	.	.	.
=93	=93	=93	=93	=93	=93	=93	=93	=93	=93	=93	=93
*>Letter>A	*>Letter>A	*>Letter>A	*>Letter>A	*>Letter>A	*>Letter>A	*>Letter>A	*>Letter>A	*>Letter>A	*>Letter>A	*>Letter>A	*>Letter>A
*>Label>Interlude	*>Label>Interlude	*>Label>Interlude	*>Label>Interlude	*>Label>Interlude	*>Label>Interlude	*>Label>Interlude	*>Label>Interlude	*>Label>Interlude	*>Label>Interlude	*>Label>Interlude	*>Label>Interlude
*C:	*C:	*C:	*	*C:	*	*C:	*	*	*	*	*
1CMM	C:maj9	4r	.	1r	.	1r	.	.	198.895	newline	guitar
.	.	8r	.	.	.	.	.	.	.	.	.
.	.	8ddq	_	.	.	.	.	.	.	.	.
.	.	[8ee	Ah,	.	.	.	.	.	.	.	.
.	.	8ee]	_	.	.	.	.	.	.	.	.
.	.	[4.dd	_	.	.	.	.	.	.	.	.
=94	=94	=94	=94	=94	=94	=94	=94	=94	=94	=94	=94
1CMM	C:maj9	4dd]	_	1r	.	1r	.	.	.	.	guitar
.	.	[4cc	_	.	.	.	.	.	.	.	.
.	.	8cc]	_	.	.	.	.	.	.	.	.
.	.	8cc	we	.	.	.	.	.	.	.	.
.	.	4dd	don't	.	.	.	.	.	.	.	.
=95	=95	=95	=95	=95	=95	=95	=95	=95	=95	=95	=95
.	.	8gq	_	.	.	.	.	.	.	.	.
1Dmm	D:min7/b7	6a	_	1r	.	1r	.	.	.	.	guitar
.	.	8gq	_	.	.	.	.	.	.	.	.
.	.	6a	_	.	.	.	.	.	.	.	.
.	.	6r	.	.	.	.	.	.	.	.	.
.	.	2r	.	.	.	.	.	.	.	.	.
=96	=96	=96	=96	=96	=96	=96	=96	=96	=96	=96	=96
1Dmm	D:min7/b7	1r	.	1r	.	1r	.	.	.	.	guitar
=97	=97	=97	=97	=97	=97	=97	=97	=97	=97	=97	=97
1CMM	C:maj9	4r	.	1r	.	1r	.	.	198.895	newline	guitar
.	.	8r	.	.	.	.	.	.	.	.	.
.	.	8ee	Ah,	.	.	.	.	.	.	.	.
.	.	8dd	_	.	.	.	.	.	.	.	.
.	.	[8cc	_	.	.	.	.	.	.	.	.
.	.	4cc_	_	.	.	.	.	.	.	.	.
=98	=98	=98	=98	=98	=98	=98	=98	=98	=98	=98	=98
1CMM	C:maj9	16.cc]	_	1r	.	1r	.	.	.	.	guitar
.	.	32~b	ooh	.	.	.	.	.	.	.	.
.	.	8dd	_	.	.	.	.	.	.	.	.
.	.	4r	.	.	.	.	.	.	.	.	.
.	.	2r	.	.	.	.	.	.	.	.	.
=99	=99	=99	=99	=99	=99	=99	=99	=99	=99	=99	=99
1Dmm	D:min7/b7	2r	.	1r	.	1r	.	.	.	.	guitar
.	.	8r	.	.	.	.	.	.	.	.	.
.	.	8ee	We	.	.	.	.	.	.	.	.
.	.	8ee	don't	.	.	.	.	.	.	.	.
.	.	[8dd	talk	.	.	.	.	.	.	.	.
=100	=100	=100	=100	=100	=100	=100	=100	=100	=100	=100	=100
1Dmm	D:min7/b7	8.dd]	_	1r	.	1r	.	.	.	.	guitar
.	.	16ee	_	.	.	.	.	.	.	.	.
.	.	4r	.	.	.	.	.	.	.	.	.
.	.	2r	.	.	.	.	.	.	.	.	.
=101	=101	=101	=101	=101	=101	=101	=101	=101	=101	=101	=101
*>Letter>A3	*>Letter>A3	*>Letter>A3	*>Letter>A3	*>Letter>A3	*>Letter>A3	*>Letter>A3	*>Letter>A3	*>Letter>A3	*>Letter>A3	*>Letter>A3	*>Letter>A3
*>Label>Outro	*>Label>Outro	*>Label>Outro	*>Label>Outro	*>Label>Outro	*>Label>Outro	*>Label>Outro	*>Label>Outro	*>Label>Outro	*>Label>Outro	*>Label>Outro	*>Label>Outro
2CM	C:maj	2r	.	1r	.	1r	.	.	233.3	newline	guitar
2CMm	C:11	8r	.	.	.	.	.	.	.	.	guitar
.	.	4.ee	Ah,	.	.	.	.	.	.	.	.
=102	=102	=102	=102	=102	=102	=102	=102	=102	=102	=102	=102
4FMm	F:11	4.dd	_	1r	.	1r	.	.	.	.	guitar
2.FM	F:maj	.	.	.	.	.	.	.	.	.	guitar
.	.	[8cc	_	.	.	.	.	.	.	.	.
.	.	8cc]	_	.	.	.	.	.	.	.	.
.	.	8dd	we	.	.	.	.	.	.	.	.
.	.	8dd	don't...	.	.	.	.	.	.	.	.
.	.	8r	.	.	.	.	.	.	.	.	.
*-	*-	*-	*-	*-	*-	*-	*-	*-	*-	*-	*-
!!!BillboardChartDate: 1979/11/10
!!!BillboardPeak: 7
!!!BillboardWeeksOnChart: 20
!!!COC: Cliff Richard
!!!ENC: Nathaniel Condit-Schultz
!!!EST: Awating manual error checking and editing.
!!!OTL: We Don't Talk Anymore
!!!RDF**chordsym: original McGill chord annotation + (implied pitch class set, with bass pitch in first position)
!!!RDF**harmony: **recip + pitch class of root + harmonic quality
!!!RDF**leadinstrument: original McGill primary instrumentation annotation
!!!RDF**phrase: newline = linebreak in original McGill transcription
!!!RDF**timestamp: McGill audio timestamp in seconds
!!!RDT: 2017/01/12/
!!!SampleActualRank: 47
!!!SampleID#: 1273
!!!SampleTargetRank: 48
